**kern	**kern
*staff2	*staff1
*clefF4	*clefG2
*k[]	*k[]
*M3/4	*M3/4
=-	=-
8GGL	(2dd
8GJ	.
8GGL	.
8GJ	.
8GGL	16ccLL
.	16b
8GJ	16a
.	16gJJ)
=10	=10
8GGL	4cc 4ee
8GJ	.
8GGL	4g 4cc
8GJ	.
8GGL	(16eeLL
.	16cc)
8GJ	(16ee
.	16ccJJ)
=11	=11
8GGL	4dd 4ff
8GJ	.
8GGL	4b 4dd
8GJ	.
8GGL	(16ffLL
.	16dd)
8GJ	(16ff
.	16ddJJ)
=12	=12
4CC. 4C.	(4ee 4gg
.	16ccLL) 16ee
.	(16gg
8r	16aa
.	16ggJJ
4r	16cccLL
.	16gg
.	16aa
.	16ggJJ)
=13	=13
4CC. 4C.	(4ee 4gg
.	16ccLL) 16ee
.	(16gg
8r	16aa
.	16ggJJ
4r	16cccLL
.	16gg
.	16aa
.	16ggJJ)
=14	=14
8e	(16ggLL
.	16ee
8r	16aa
.	16ggJJ
8B	16ffLL
.	16dd
8r	16gg
.	16ffJJ
8c	16eeLL
.	16cc
8r	16ff
.	16eeJJ)
=15	=15
(2G	(16eeLL
.	16dd)
.	16g'
.	16a'JJ
.	16b'LL
.	16cc'
.	16dd'
.	16ee'JJ
4F	16ff'LL
.	16gg'
.	16aa'
.	16bb'JJ
=16	=16
8E)	16ccc'LL
.	16gg'
8r	(16ee
.	16ggJJ)
8BB	(16ffLL
.	16aa)
8r	(16dd
.	16ffJJ)
8C	(16eeLL
.	16gg)
8r	(16cc
.	16eeJJ)
=17	=17
4G	(8eeL
.	8ddJ)
4GG	(8ccL
.	8bJ)
4r	(8aL
.	8gJ)
=18	=18
*-	*-
